src/assets/outline/Repeat.svg

<svg width="24" height="24" viewBox="0 0 24 24"  xmlns="http://www.w3.org/2000/svg">
<path d="M20.4201 12.2198C20.0101 12.2198 19.6701 11.8798 19.6701 11.4698V8.1499C19.6701 6.9099 18.6601 5.8999 17.4201 5.8999H3.58008C3.17008 5.8999 2.83008 5.5599 2.83008 5.1499C2.83008 4.7399 3.17008 4.3999 3.58008 4.3999H17.4201C19.4901 4.3999 21.1701 6.0799 21.1701 8.1499V11.4698C21.1701 11.8898 20.8301 12.2198 20.4201 12.2198Z" />
<path d="M6.74008 9.06998C6.55008 9.06998 6.36008 8.99995 6.21008 8.84995L3.05008 5.68997C2.91008 5.54997 2.83008 5.35994 2.83008 5.15994C2.83008 4.95994 2.91008 4.76998 3.05008 4.62998L6.21008 1.46994C6.50008 1.17994 6.98008 1.17994 7.27008 1.46994C7.56008 1.75994 7.56008 2.24 7.27008 2.53L4.64011 5.15994L7.27008 7.78995C7.56008 8.07995 7.56008 8.55995 7.27008 8.84995C7.12008 8.98995 6.93008 9.06998 6.74008 9.06998Z" />
<path d="M20.4201 19.59H6.58008C4.51008 19.59 2.83008 17.91 2.83008 15.84V12.52C2.83008 12.11 3.17008 11.77 3.58008 11.77C3.99008 11.77 4.33008 12.11 4.33008 12.52V15.84C4.33008 17.08 5.34008 18.09 6.58008 18.09H20.4201C20.8301 18.09 21.1701 18.43 21.1701 18.84C21.1701 19.25 20.8301 19.59 20.4201 19.59Z" />
<path d="M17.2602 22.7501C17.0702 22.7501 16.8802 22.6801 16.7302 22.5301C16.4402 22.2401 16.4402 21.7601 16.7302 21.4701L19.3602 18.8401L16.7302 16.2101C16.4402 15.9201 16.4402 15.4401 16.7302 15.1501C17.0202 14.8601 17.5002 14.8601 17.7902 15.1501L20.9502 18.3101C21.0902 18.4501 21.1702 18.6401 21.1702 18.8401C21.1702 19.0401 21.0902 19.2301 20.9502 19.3701L17.7902 22.5301C17.6502 22.6801 17.4602 22.7501 17.2602 22.7501Z" />
</svg>

<?xml version="1.0" encoding="UTF-8"?>
<svg width="24" height="24" viewBox="0 0 24 24" xmlns="http://www.w3.org/2000/svg">
 <path d="m20.42 12.22c-0.41 0-0.75-0.34-0.75-0.75v-3.3199c0-1.24-1.01-2.25-2.25-2.25h-13.84c-0.41 0-0.75-0.34-0.75-0.75s0.34-0.75 0.75-0.75h13.84c2.07 0 3.75 1.68 3.75 3.75v3.3199c0 0.42-0.34 0.75-0.75 0.75z"/>
 <path d="m6.7401 9.07c-0.19 0-0.38-0.07003-0.53-0.22003l-3.16-3.16c-0.14-0.14-0.22-0.33003-0.22-0.53003s0.08-0.38996 0.22-0.52996l3.16-3.16c0.29-0.29 0.77-0.29 1.06 0s0.29 0.77006 0 1.0601l-2.63 2.6299 2.63 2.63c0.29 0.29 0.29 0.77 0 1.06-0.15 0.14-0.34 0.22003-0.53 0.22003z"/>
 <path d="m20.42 19.59h-13.84c-2.07 0-3.75-1.68-3.75-3.75v-3.32c0-0.41 0.34-0.75 0.75-0.75s0.75 0.34 0.75 0.75v3.32c0 1.24 1.01 2.25 2.25 2.25h13.84c0.41 0 0.75 0.34 0.75 0.75s-0.34 0.75-0.75 0.75z"/>
 <path d="m17.26 22.75c-0.19 0-0.38-0.07-0.53-0.22-0.29-0.29-0.29-0.77 0-1.06l2.63-2.63-2.63-2.63c-0.29-0.29-0.29-0.77 0-1.06s0.77-0.29 1.06 0l3.16 3.16c0.14 0.14 0.22 0.33 0.22 0.53s-0.08 0.39-0.22 0.53l-3.16 3.16c-0.14 0.15-0.33 0.22-0.53 0.22z"/>
</svg>
